svg/m/TF.svg

<svg width="20" height="15" viewBox="0 0 20 15" fill="none" xmlns="http://www.w3.org/2000/svg">
<g clip-path="url(#clip0_270_60802)">
<rect width="20" height="15" fill="white"/>
<path fill-rule="evenodd" clip-rule="evenodd" d="M0 0V15H20V0H0Z" fill="#2E42A5"/>
<mask id="mask0_270_60802" style="mask-type:luminance" maskUnits="userSpaceOnUse" x="0" y="0" width="20" height="15">
<path fill-rule="evenodd" clip-rule="evenodd" d="M0 0V15H20V0H0Z" fill="white"/>
</mask>
<g mask="url(#mask0_270_60802)">
<path fill-rule="evenodd" clip-rule="evenodd" d="M11.743 3.875H14.2482H14.268H16.7732L16.2831 4.81501H14.7571V5.31993H15.927L15.4504 6.19444H14.7571V7.94337L15.8991 6.14382L17.377 8.70295H16.7732L16.5623 8.42275H15.2246L14.284 10.1608L14.2842 10.2568L14.2581 10.2086L14.232 10.2568L14.2323 10.1608L13.2916 8.42275H11.9539L11.743 8.70295H11.1392L12.6172 6.14382L13.7592 7.94337V4.81501H12.2331L11.743 3.875ZM15.9285 7.19344L15.6002 7.69826H16.2216L15.9285 7.19344ZM12.5877 7.19344L12.916 7.69826H12.2946L12.5877 7.19344ZM10.196 6.63327L10.7154 6.25035L11.2348 6.63327L11.0516 5.99159L11.5558 5.58656L10.9232 5.5729L10.7154 4.93966L10.5076 5.5729L9.875 5.58656L10.3792 5.99159L10.196 6.63327ZM17.7846 6.25035L17.2652 6.63327L17.4484 5.99159L16.9442 5.58656L17.5768 5.5729L17.7846 4.93966L17.9924 5.5729L18.625 5.58656L18.1208 5.99159L18.304 6.63327L17.7846 6.25035ZM15.6746 11.1271L16.194 10.7441L16.7134 11.1271L16.5302 10.4854L17.0344 10.0804L16.4018 10.0667L16.194 9.43345L15.9863 10.0667L15.3536 10.0804L15.8579 10.4854L15.6746 11.1271ZM12.306 10.7441L11.7866 11.1271L11.9698 10.4854L11.4656 10.0804L12.0982 10.0667L12.306 9.43345L12.5137 10.0667L13.1464 10.0804L12.6421 10.4854L12.8254 11.1271L12.306 10.7441ZM13.7306 12.625L14.25 12.2421L14.7694 12.625L14.5862 11.9833L15.0904 11.5783L14.4578 11.5646L14.25 10.9314L14.0422 11.5646L13.4096 11.5783L13.9138 11.9833L13.7306 12.625Z" fill="#F7FCFF"/>
<path fill-rule="evenodd" clip-rule="evenodd" d="M5 0H7.5V6.25H5V0Z" fill="#F50100"/>
<path fill-rule="evenodd" clip-rule="evenodd" d="M0 0H2.5V6.25H0V0Z" fill="#2E42A5"/>
<path fill-rule="evenodd" clip-rule="evenodd" d="M2.5 0H5V6.25H2.5V0Z" fill="#F7FCFF"/>
</g>
</g>
<defs>
<clipPath id="clip0_270_60802">
<rect width="20" height="15" fill="white"/>
</clipPath>
</defs>
</svg>

<svg width="20" height="15" fill="none" xmlns="http://www.w3.org/2000/svg">
  <mask id="a" maskUnits="userSpaceOnUse" x="0" y="0" width="20" height="15">
    <path fill="#fff" d="M0 0h20v15H0z"/>
  </mask>
  <g mask="url(#a)">
    <path fill-rule="evenodd" clip-rule="evenodd" d="M0 0v15h20V0H0z" fill="#2E42A5"/>
    <mask id="b" maskUnits="userSpaceOnUse" x="0" y="0" width="20" height="15">
      <path fill-rule="evenodd" clip-rule="evenodd" d="M0 0v15h20V0H0z" fill="#fff"/>
    </mask>
    <g mask="url(#b)">
      <path fill-rule="evenodd" clip-rule="evenodd" d="M11.743 3.875h5.03l-.49.94h-1.526v.505h1.17l-.477.874h-.693v1.75l1.142-1.8 1.478 2.559h-.604l-.21-.28h-1.338l-.941 1.738v.096l-.026-.048-.026.048v-.096l-.94-1.738h-1.338l-.211.28h-.604l1.478-2.56 1.142 1.8V4.815h-1.526l-.49-.94zm4.185 3.318l-.328.505h.622l-.294-.505zm-3.34 0l.328.505h-.621l.293-.505zm-2.392-.56l.52-.383.519.383-.183-.641.504-.405-.633-.014-.208-.633-.207.633-.633.014.504.405-.183.641zm7.589-.383l-.52.383.183-.641-.504-.405.633-.014.208-.633.207.633.633.014-.504.405.183.641-.52-.383zm-2.11 4.877l.519-.383.52.383-.184-.642.504-.405-.632-.013-.208-.634-.208.634-.632.013.504.405-.183.642zm-3.369-.383l-.52.383.184-.642-.504-.405.632-.013.208-.634.208.634.632.013-.504.405.183.642-.519-.383zm1.425 1.881l.519-.383.52.383-.184-.642.504-.405-.632-.013-.208-.634-.208.634-.632.013.504.405-.183.642z" fill="#F7FCFF"/>
      <path fill="#2E42A5" stroke="#fff" stroke-width=".625" d="M-.313-.313h8.125v6.875H-.313z"/>
      <mask id="c" maskUnits="userSpaceOnUse" x="-1" y="-1" width="10" height="8">
        <path fill="#fff" stroke="#fff" stroke-width=".625" d="M-.313-.313h8.125v6.875H-.313z"/>
      </mask>
      <g mask="url(#c)" fill-rule="evenodd" clip-rule="evenodd">
        <path d="M5 0h2.5v6.25H5V0z" fill="#F50100"/>
        <path d="M0 0h2.5v6.25H0V0z" fill="#2E42A5"/>
        <path d="M2.5 0H5v6.25H2.5V0z" fill="#F7FCFF"/>
      </g>
    </g>
  </g>
</svg>
